client/build/img/svg/requirement.svg

<svg width="9" height="11" viewBox="0 0 9 11" fill="none" xmlns="http://www.w3.org/2000/svg">
<path d="M3.77938 10.09H5.33938L5.03938 6.34L8.12938 8.53L8.93938 7.12L5.45938 5.53L8.93938 3.91L8.12938 2.53L5.03938 4.69L5.33938 0.939999H3.77938L4.07938 4.69L0.989375 2.53L0.179375 3.91L3.65938 5.53L0.179375 7.12L0.989375 8.53L4.07938 6.34L3.77938 10.09Z" fill="#FF4400"/>
</svg>

<svg width="9" height="11" fill="none" xmlns="http://www.w3.org/2000/svg"><path d="M3.78 10.09h1.56l-.3-3.75 3.09 2.19.81-1.41-3.48-1.59 3.48-1.62-.81-1.38-3.09 2.16.3-3.75H3.78l.3 3.75L.99 2.53.18 3.91l3.48 1.62L.18 7.12l.81 1.41 3.09-2.19-.3 3.75z" fill="#F40"/></svg>
